X:1
T:Title
%%score { 1 | 2 }
L:1/8
M:3/4
K:Eb
V:1 treble nm="Grand Piano"
V:2 bass 
V:1
 z2 z[Q:1/4=94] G G>F | E3 [DF] G>B | B3 B c>c | B3 G E>G | [DF]3 [DA] G>F | E3 [DF] GB | %6
 c3 c c>c | e3 [=Ae] [Ad]>c |[M:3/8] B3 | B[Ge]>[Ge] |[M:3/4] [Ge]3 [GB] [Ac]>[Ac] | %11
 [GB]3 [GB] [Ge]>[Ge] | [Ge]3 [GB] [EG][CE] | [DF]3 [DA] G>F | E3 [DF] GB | c3 e dc | B3 G [DF]>E | %17
[M:3/8] E3 |] %18
V:2
 z2 z [E,B,E] [E,B,E]>[E,A,B,] | [E,G,B,]3 [B,,B,] [E,B,E]>[F,A,D] | [G,E]3 [E,G,E] [A,E]>[A,E] | %3
 [E,G,E]3 [E,B,E] [F,=A,C]>[F,A,E] | [B,,B,]3 [B,,B,] [E,B,E]>[E,A,B,] | %5
 [E,G,B,]3 [B,,B,] [E,B,E][G,B,E] | [A,E]3 [A,E] [G,B,=E]>[G,B,E] | %7
 [F,=A,F]3 [F,C][K:treble] [F,F]>[F,EF] |[M:3/8] [B,DF]3 | [B,DA][K:bass][E,B,]>[E,B,] | %10
[M:3/4] [E,B,]3 [E,E] [A,E]>[A,E] | [E,E]3 [E,E] [E,B,]>[E,B,] | [E,B,]3 [E,E] [E,B,][F,=A,] | %13
 [B,,B,]3 [B,,B,] [E,B,E]>[E,A,B,] | [E,G,B,]3 [B,,B,] [E,B,E][G,B,E] | %15
 [A,E]3 [A,CE] [A,B,E][A,E] | [E,G,E]3 [E,B,E] [B,,A,]>[E,G,B,] |[M:3/8] [E,G,B,]3 |] %18

